public/topics/1.svg

<svg width="250" height="250" viewBox="0 0 250 250" fill="none" xmlns="http://www.w3.org/2000/svg">
<rect width="250" height="250" rx="30" fill="#FF0000"/>
<path d="M141.6 89.8C140.267 115.933 139.6 136.733 139.6 152.2C139.6 160.2 139.8 167.8 140.2 175C141.267 175.8 143.333 176.2 146.4 176.2L151 176C152.867 175.733 154.6 175.6 156.2 175.6C159.667 175.6 162.333 176.2 164.2 177.4C166.2 178.6 167.2 180.933 167.2 184.4C167.2 187.733 166.2 190.333 164.2 192.2C162.333 194.067 158.4 195 152.4 195C147.333 195 141.2 194.6 134 193.8C132.267 193.667 130.6 193.533 129 193.4C127.4 193.267 125.933 193.2 124.6 193.2C117.267 193.333 111.8 193.6 108.2 194C104.6 194.4 100.533 194.6 96 194.6C91.8667 194.6 89.8 191.467 89.8 185.2C89.8 179.2 93.6667 176.2 101.4 176.2C102.6 176.2 104.533 176.333 107.2 176.6C109.467 177 111.867 177.2 114.4 177.2C115.867 177.2 117.067 177.133 118 177C118.133 168.067 118.6 155.067 119.4 138C120.2 118 120.6 103.2 120.6 93.6C119.933 93.7333 117.6 94.6667 113.6 96.4C107.467 99.4667 102.933 101 100 101C98.4 101 96.9333 100.2 95.6 98.6C94.2667 96.8667 93.6 94.8667 93.6 92.6C93.6 90.3333 95 88.1333 97.8 86C100.6 83.8667 105.133 81.0667 111.4 77.6C114.867 75.8667 118.2 73.9333 121.4 71.8C122.2 71.2667 123.333 70.7333 124.8 70.2C126.4 69.6667 127.6 69.4 128.4 69.4C131.867 69.4 135 70.1333 137.8 71.6C140.733 72.9333 142.2 74.7333 142.2 77L141.6 89.8Z" fill="white"/>
</svg>

<svg xmlns="http://www.w3.org/2000/svg" width="250" height="250" fill="none" viewBox="0 0 250 250"><rect width="250" height="250" fill="red" rx="30"/><path fill="#fff" d="M141.6 89.8q-2 39.2-2 62.4 0 12 .6 22.8 1.6 1.2 6.2 1.2l4.6-.2q2.8-.4 5.2-.4 5.2 0 8 1.8 3 1.8 3 7 0 5-3 7.8-2.8 2.8-11.8 2.8-7.6 0-18.4-1.2a790 790 0 0 1-5-.4q-2.4-.2-4.4-.2-11 .2-16.4.8t-12.2.6q-6.2 0-6.2-9.4 0-9 11.6-9 1.8 0 5.8.4 3.4.6 7.2.6 2.2 0 3.6-.2.2-13.4 1.4-39 1.2-30 1.2-44.4-1 .2-7 2.8-9.2 4.6-13.6 4.6-2.4 0-4.4-2.4-2-2.6-2-6t4.2-6.6 13.6-8.4a93 93 0 0 0 10-5.8q1.2-.8 3.4-1.6 2.4-.8 3.6-.8 5.2 0 9.4 2.2 4.4 2 4.4 5.4z"/></svg>
